Newaita-dark/devices/24/media-flash-ms.svg

<svg height="24pt" viewBox="0 0 24 24" width="24pt" xmlns="http://www.w3.org/2000/svg" xmlns:xlink="http://www.w3.org/1999/xlink"><linearGradient id="a"><stop offset="0" stop-opacity=".27451"/><stop offset="1" stop-opacity="0"/></linearGradient><linearGradient id="b" gradientUnits="userSpaceOnUse" x1="11.907391" x2="11.907391" xlink:href="#a" y1="20.98665325" y2="21.97893615627"/><linearGradient id="c"><stop offset="0" stop-opacity=".313725"/><stop offset=".222222" stop-opacity=".27451"/><stop offset="1" stop-opacity="0"/></linearGradient><radialGradient id="d" cx="450.90894" cy="189.57936" gradientTransform="matrix(.00000013 -.0585994 -.105479 -.00000008 37.857633 47.657703)" gradientUnits="userSpaceOnUse" r="21.166656" xlink:href="#c"/><radialGradient id="e" cx="450.90894" cy="189.57936" gradientTransform="matrix(-.00000013 .0585994 .105479 .00000008 -14.042859 -5.684407)" gradientUnits="userSpaceOnUse" r="21.166656" xlink:href="#c"/><radialGradient id="f" cx="450.90894" cy="189.57936" gradientTransform="matrix(-.00000013 -.0585994 .105479 -.00000008 -14.042859 47.657703)" gradientUnits="userSpaceOnUse" r="21.166656" xlink:href="#c"/><radialGradient id="g" cx="450.90894" cy="189.57936" gradientTransform="matrix(.00000013 .0585994 -.105479 .00000008 37.857631 -5.684407)" gradientUnits="userSpaceOnUse" r="21.166656" xlink:href="#c"/><linearGradient id="h" gradientUnits="userSpaceOnUse" x1="23.070565" x2="23.070565" xlink:href="#a" y1="20.98665325" y2="21.97893615627"/><radialGradient id="i" cx="450.90894" cy="189.57936" gradientTransform="matrix(-.00000013 .0585994 .105479 .00000008 -2.879684 -5.684407)" gradientUnits="userSpaceOnUse" r="21.166656" xlink:href="#c"/><radialGradient id="j" cx="450.90894" cy="189.57936" gradientTransform="matrix(-.00000013 -.0585994 .105479 -.00000008 -2.879684 47.657703)" gradientUnits="userSpaceOnUse" r="21.166656" xlink:href="#c"/><radialGradient id="k" cx="450.90894" cy="189.57936" gradientTransform="matrix(.00000013 -.0585994 -.105479 -.00000008 26.694456 47.657703)" gradientUnits="userSpaceOnUse" r="21.166656" xlink:href="#c"/><radialGradient id="l" cx="450.90894" cy="189.57936" gradientTransform="matrix(.00000013 .0585994 -.105479 .00000008 26.694455 -5.684407)" gradientUnits="userSpaceOnUse" r="21.166656" xlink:href="#c"/><linearGradient id="m" gradientUnits="userSpaceOnUse" x1="11.907393" x2="11.907393" y1="23.01001606253" y2=".1875125"><stop offset="0" stop-color="#78909c"/><stop offset="1" stop-color="#90a4ae"/></linearGradient><linearGradient id="n" gradientUnits="userSpaceOnUse" x1="11.907393" x2="11.907393" xlink:href="#a" y1=".1875125" y2="24.0022985"/><path d="m5.707031 21.003906h1.238281v1.015625h-1.238281zm0 0" fill="url(#b)"/><path d="m18.109375 20.988281h1.984375v-.992187h-1.984375zm0 0" fill="url(#d)"/><path d="m5.707031 20.988281h-1.984375v.992188h1.984375zm0 0" fill="url(#e)"/><path d="m5.707031 20.988281h-1.984375v-.992187h1.984375zm0 0" fill="url(#f)"/><path d="m18.109375 20.988281h1.984375v.992188h-1.984375zm0 0" fill="url(#g)"/><path d="m16.867188 21.003906h1.242187v1.015625h-1.242187zm0 0" fill="url(#h)"/><path d="m16.867188 20.988281h-1.984376v.992188h1.984376zm0 0" fill="url(#i)"/><path d="m16.867188 20.988281h-1.984376v-.992187h1.984376zm0 0" fill="url(#j)"/><path d="m6.945312 20.988281h1.984376v-.992187h-1.984376zm0 0" fill="url(#k)"/><path d="m6.945312 20.988281h1.984376v.992188h-1.984376zm0 0" fill="url(#l)"/><path d="m8.929688 2.175781c-.261719 0-.511719.105469-.699219.289063l-3.96875 3.96875c-.183594.1875-.289063.4375-.289063.699218v12.898438c0 .546875.445313.988281.988282.988281h2.976562v-.492187c0-.546875.441406-.992188.992188-.992188h5.953124c.550782 0 .992188.445313.992188.992188v.492187h2.976562c.546876 0 .988282-.441406.988282-.988281v-16.867188c0-.546874-.441406-.988281-.988282-.988281zm0 0" fill="url(#m)"/><path d="m8.929688 19.167969c-.550782 0-.992188.445312-.992188.992187v.367188c0-.546875.441406-.992188.992188-.992188h5.953124c.550782 0 .992188.445313.992188.992188v-.367188c0-.546875-.441406-.992187-.992188-.992187zm-4.957032.496093v.367188c0 .546875.445313.988281.988282.988281h2.976562v-.367187h-2.976562c-.542969 0-.988282-.441406-.988282-.988282zm15.867188 0c0 .546876-.441406.988282-.988282.988282h-2.976562v.367187h2.976562c.546876 0 .988282-.441406.988282-.988281zm0 0" fill-opacity=".235294"/><path d="m9.425781 4.160156c-.261719 0-.511719.105469-.699219.289063l-2.480468 2.480469c-.183594.1875-.289063.4375-.289063.699218v9.425782c0 .546874.445313.988281.988281.988281h9.921876c.546874 0 .988281-.441407.988281-.988281v-11.90625c0-.542969-.441407-.988282-.988281-.988282zm0 0" fill="url(#n)"/><path d="m5.957031 17.054688v.375c0 .542968.445313.984374.988281.984374h9.921876c.546874 0 .988281-.441406.988281-.984374v-.375c0 .546874-.441407.988281-.988281.988281h-9.921876c-.542968 0-.988281-.441407-.988281-.988281zm0 0" fill="#fff" fill-opacity=".392157"/><path d="m9.425781 4.160156c-.261719 0-.511719.105469-.699219.289063l-2.480468 2.480469c-.183594.1875-.289063.4375-.289063.699218v.367188c0-.261719.105469-.511719.289063-.699219l2.480468-2.480469c.1875-.183594.4375-.289062.699219-.289062h7.441407c.546874 0 .988281.445312.988281.988281v-.367187c0-.542969-.441407-.988282-.988281-.988282zm0 0" fill-opacity=".235294"/><path d="m201.064133-126.258474c-5.582801 0-10.915625 2.249785-14.915243 6.166077l-52.911614 52.911614c-3.916292 3.999618-6.166077 9.332442-6.166077 14.915243v201.064132c0 11.665553 9.499093 21.08132 21.08132 21.08132h211.646455c11.665553 0 21.08132-9.415767 21.08132-21.08132v-253.975746c0-11.582228-9.415767-21.08132-21.08132-21.08132zm0 0" fill="none" stroke="#212121" stroke-linecap="round" stroke-linejoin="round" stroke-width="3" transform="matrix(.0468795 0 0 .0468795 0 10.079087)"/><path d="m8.929688 2.175781c-.261719 0-.511719.105469-.699219.289063l-3.96875 3.96875c-.183594.1875-.289063.4375-.289063.699218v.246094c0-.261718.105469-.511718.289063-.699218l3.96875-3.96875c.1875-.183594.4375-.289063.699219-.289063h9.921874c.546876 0 .988282.441406.988282.988281v-.246094c0-.546874-.441406-.988281-.988282-.988281zm0 0" fill="#fff" fill-opacity=".392157"/><path d="m719.931259 175.416322c-21.100347 0-41.255903 8.503125-56.37257 23.304861l-319.969449 319.969449c-14.801736 15.116666-23.304861 35.272222-23.304861 56.37257v1039.900707c0 44.090279 35.902084 79.677432 79.677432 79.677432h239.977086v-39.681251c0-44.090278 35.587153-79.992362 79.992362-79.992362h479.954173c44.405209 0 79.992362 35.902084 79.992362 79.992362v39.681251h239.977086c44.090279 0 79.677432-35.587153 79.677432-79.677432v-1359.870156c0-44.090278-35.587153-79.677431-79.677432-79.677431zm0 0" fill="none" stroke="#212121" stroke-linecap="round" stroke-linejoin="round" stroke-width="11.338583" transform="scale(.0124035)"/></svg>

<?xml version="1.0" encoding="UTF-8"?>
<svg xmlns="http://www.w3.org/2000/svg" xmlns:xlink="http://www.w3.org/1999/xlink" width="24pt" height="24pt" viewBox="0 0 24 24" version="1.1">
<defs>
<linearGradient id="linear0" gradientUnits="userSpaceOnUse" x1="254" y1="233.5" x2="254" y2="254.66667" gradientTransform="matrix(0.0468795,0,0,0.0468795,-0.00000187518,10.04029)">
<stop offset="0" style="stop-color:rgb(0%,0%,0%);stop-opacity:0.27451;"/>
<stop offset="1" style="stop-color:rgb(0%,0%,0%);stop-opacity:0;"/>
</linearGradient>
<radialGradient id="radial0" gradientUnits="userSpaceOnUse" cx="450.90894" cy="189.57936" fx="450.90894" fy="189.57936" r="21.166656" gradientTransform="matrix(0.000000130628,-0.0585994,-0.105479,-0.0000000761539,37.857633,47.657703)">
<stop offset="0" style="stop-color:rgb(0%,0%,0%);stop-opacity:0.313725;"/>
<stop offset="0.222222" style="stop-color:rgb(0%,0%,0%);stop-opacity:0.27451;"/>
<stop offset="1" style="stop-color:rgb(0%,0%,0%);stop-opacity:0;"/>
</radialGradient>
<radialGradient id="radial1" gradientUnits="userSpaceOnUse" cx="450.90894" cy="189.57936" fx="450.90894" fy="189.57936" r="21.166656" gradientTransform="matrix(-0.000000130628,0.0585994,0.105479,0.0000000761539,-14.042859,-5.684407)">
<stop offset="0" style="stop-color:rgb(0%,0%,0%);stop-opacity:0.313725;"/>
<stop offset="0.222222" style="stop-color:rgb(0%,0%,0%);stop-opacity:0.27451;"/>
<stop offset="1" style="stop-color:rgb(0%,0%,0%);stop-opacity:0;"/>
</radialGradient>
<radialGradient id="radial2" gradientUnits="userSpaceOnUse" cx="450.90894" cy="189.57936" fx="450.90894" fy="189.57936" r="21.166656" gradientTransform="matrix(-0.000000130628,-0.0585994,0.105479,-0.0000000761539,-14.042859,47.657703)">
<stop offset="0" style="stop-color:rgb(0%,0%,0%);stop-opacity:0.313725;"/>
<stop offset="0.222222" style="stop-color:rgb(0%,0%,0%);stop-opacity:0.27451;"/>
<stop offset="1" style="stop-color:rgb(0%,0%,0%);stop-opacity:0;"/>
</radialGradient>
<radialGradient id="radial3" gradientUnits="userSpaceOnUse" cx="450.90894" cy="189.57936" fx="450.90894" fy="189.57936" r="21.166656" gradientTransform="matrix(0.000000130628,0.0585994,-0.105479,0.0000000761539,37.857631,-5.684407)">
<stop offset="0" style="stop-color:rgb(0%,0%,0%);stop-opacity:0.313725;"/>
<stop offset="0.222222" style="stop-color:rgb(0%,0%,0%);stop-opacity:0.27451;"/>
<stop offset="1" style="stop-color:rgb(0%,0%,0%);stop-opacity:0;"/>
</radialGradient>
<linearGradient id="linear1" gradientUnits="userSpaceOnUse" x1="254" y1="233.5" x2="254" y2="254.66667" gradientTransform="matrix(0.0468795,0,0,0.0468795,11.163172,10.04029)">
<stop offset="0" style="stop-color:rgb(0%,0%,0%);stop-opacity:0.27451;"/>
<stop offset="1" style="stop-color:rgb(0%,0%,0%);stop-opacity:0;"/>
</linearGradient>
<radialGradient id="radial4" gradientUnits="userSpaceOnUse" cx="450.90894" cy="189.57936" fx="450.90894" fy="189.57936" r="21.166656" gradientTransform="matrix(-0.000000130628,0.0585994,0.105479,0.0000000761539,-2.879684,-5.684407)">
<stop offset="0" style="stop-color:rgb(0%,0%,0%);stop-opacity:0.313725;"/>
<stop offset="0.222222" style="stop-color:rgb(0%,0%,0%);stop-opacity:0.27451;"/>
<stop offset="1" style="stop-color:rgb(0%,0%,0%);stop-opacity:0;"/>
</radialGradient>
<radialGradient id="radial5" gradientUnits="userSpaceOnUse" cx="450.90894" cy="189.57936" fx="450.90894" fy="189.57936" r="21.166656" gradientTransform="matrix(-0.000000130628,-0.0585994,0.105479,-0.0000000761539,-2.879684,47.657703)">
<stop offset="0" style="stop-color:rgb(0%,0%,0%);stop-opacity:0.313725;"/>
<stop offset="0.222222" style="stop-color:rgb(0%,0%,0%);stop-opacity:0.27451;"/>
<stop offset="1" style="stop-color:rgb(0%,0%,0%);stop-opacity:0;"/>
</radialGradient>
<radialGradient id="radial6" gradientUnits="userSpaceOnUse" cx="450.90894" cy="189.57936" fx="450.90894" fy="189.57936" r="21.166656" gradientTransform="matrix(0.000000130628,-0.0585994,-0.105479,-0.0000000761539,26.694456,47.657703)">
<stop offset="0" style="stop-color:rgb(0%,0%,0%);stop-opacity:0.313725;"/>
<stop offset="0.222222" style="stop-color:rgb(0%,0%,0%);stop-opacity:0.27451;"/>
<stop offset="1" style="stop-color:rgb(0%,0%,0%);stop-opacity:0;"/>
</radialGradient>
<radialGradient id="radial7" gradientUnits="userSpaceOnUse" cx="450.90894" cy="189.57936" fx="450.90894" fy="189.57936" r="21.166656" gradientTransform="matrix(0.000000130628,0.0585994,-0.105479,0.0000000761539,26.694455,-5.684407)">
<stop offset="0" style="stop-color:rgb(0%,0%,0%);stop-opacity:0.313725;"/>
<stop offset="0.222222" style="stop-color:rgb(0%,0%,0%);stop-opacity:0.27451;"/>
<stop offset="1" style="stop-color:rgb(0%,0%,0%);stop-opacity:0;"/>
</radialGradient>
<linearGradient id="linear2" gradientUnits="userSpaceOnUse" x1="254" y1="275.83334" x2="254" y2="-211" gradientTransform="matrix(0.0468795,0,0,0.0468795,0,10.079087)">
<stop offset="0" style="stop-color:rgb(47.058824%,56.470588%,61.176471%);stop-opacity:1;"/>
<stop offset="1" style="stop-color:rgb(56.470588%,64.313725%,68.235294%);stop-opacity:1;"/>
</linearGradient>
<linearGradient id="linear3" gradientUnits="userSpaceOnUse" x1="254" y1="-211" x2="254" y2="297" gradientTransform="matrix(0.0468795,0,0,0.0468795,0,10.079087)">
<stop offset="0" style="stop-color:rgb(0%,0%,0%);stop-opacity:0.27451;"/>
<stop offset="1" style="stop-color:rgb(0%,0%,0%);stop-opacity:0;"/>
</linearGradient>
</defs>
<g id="surface1">
<path style=" stroke:none;fill-rule:nonzero;fill:url(#linear0);" d="M 5.707031 21.003906 L 6.945312 21.003906 L 6.945312 22.019531 L 5.707031 22.019531 Z M 5.707031 21.003906 "/>
<path style=" stroke:none;fill-rule:nonzero;fill:url(#radial0);" d="M 18.109375 20.988281 L 20.09375 20.988281 L 20.09375 19.996094 L 18.109375 19.996094 Z M 18.109375 20.988281 "/>
<path style=" stroke:none;fill-rule:nonzero;fill:url(#radial1);" d="M 5.707031 20.988281 L 3.722656 20.988281 L 3.722656 21.980469 L 5.707031 21.980469 Z M 5.707031 20.988281 "/>
<path style=" stroke:none;fill-rule:nonzero;fill:url(#radial2);" d="M 5.707031 20.988281 L 3.722656 20.988281 L 3.722656 19.996094 L 5.707031 19.996094 Z M 5.707031 20.988281 "/>
<path style=" stroke:none;fill-rule:nonzero;fill:url(#radial3);" d="M 18.109375 20.988281 L 20.09375 20.988281 L 20.09375 21.980469 L 18.109375 21.980469 Z M 18.109375 20.988281 "/>
<path style=" stroke:none;fill-rule:nonzero;fill:url(#linear1);" d="M 16.867188 21.003906 L 18.109375 21.003906 L 18.109375 22.019531 L 16.867188 22.019531 Z M 16.867188 21.003906 "/>
<path style=" stroke:none;fill-rule:nonzero;fill:url(#radial4);" d="M 16.867188 20.988281 L 14.882812 20.988281 L 14.882812 21.980469 L 16.867188 21.980469 Z M 16.867188 20.988281 "/>
<path style=" stroke:none;fill-rule:nonzero;fill:url(#radial5);" d="M 16.867188 20.988281 L 14.882812 20.988281 L 14.882812 19.996094 L 16.867188 19.996094 Z M 16.867188 20.988281 "/>
<path style=" stroke:none;fill-rule:nonzero;fill:url(#radial6);" d="M 6.945312 20.988281 L 8.929688 20.988281 L 8.929688 19.996094 L 6.945312 19.996094 Z M 6.945312 20.988281 "/>
<path style=" stroke:none;fill-rule:nonzero;fill:url(#radial7);" d="M 6.945312 20.988281 L 8.929688 20.988281 L 8.929688 21.980469 L 6.945312 21.980469 Z M 6.945312 20.988281 "/>
<path style=" stroke:none;fill-rule:nonzero;fill:url(#linear2);" d="M 8.929688 2.175781 C 8.667969 2.175781 8.417969 2.28125 8.230469 2.464844 L 4.261719 6.433594 C 4.078125 6.621094 3.972656 6.871094 3.972656 7.132812 L 3.972656 20.03125 C 3.972656 20.578125 4.417969 21.019531 4.960938 21.019531 L 7.9375 21.019531 L 7.9375 20.527344 C 7.9375 19.980469 8.378906 19.535156 8.929688 19.535156 L 14.882812 19.535156 C 15.433594 19.535156 15.875 19.980469 15.875 20.527344 L 15.875 21.019531 L 18.851562 21.019531 C 19.398438 21.019531 19.839844 20.578125 19.839844 20.03125 L 19.839844 3.164062 C 19.839844 2.617188 19.398438 2.175781 18.851562 2.175781 Z M 8.929688 2.175781 "/>
<path style=" stroke:none;fill-rule:nonzero;fill:rgb(0%,0%,0%);fill-opacity:0.235294;" d="M 8.929688 19.167969 C 8.378906 19.167969 7.9375 19.613281 7.9375 20.160156 L 7.9375 20.527344 C 7.9375 19.980469 8.378906 19.535156 8.929688 19.535156 L 14.882812 19.535156 C 15.433594 19.535156 15.875 19.980469 15.875 20.527344 L 15.875 20.160156 C 15.875 19.613281 15.433594 19.167969 14.882812 19.167969 Z M 3.972656 19.664062 L 3.972656 20.03125 C 3.972656 20.578125 4.417969 21.019531 4.960938 21.019531 L 7.9375 21.019531 L 7.9375 20.652344 L 4.960938 20.652344 C 4.417969 20.652344 3.972656 20.210938 3.972656 19.664062 Z M 19.839844 19.664062 C 19.839844 20.210938 19.398438 20.652344 18.851562 20.652344 L 15.875 20.652344 L 15.875 21.019531 L 18.851562 21.019531 C 19.398438 21.019531 19.839844 20.578125 19.839844 20.03125 Z M 19.839844 19.664062 "/>
<path style=" stroke:none;fill-rule:nonzero;fill:url(#linear3);" d="M 9.425781 4.160156 C 9.164062 4.160156 8.914062 4.265625 8.726562 4.449219 L 6.246094 6.929688 C 6.0625 7.117188 5.957031 7.367188 5.957031 7.628906 L 5.957031 17.054688 C 5.957031 17.601562 6.402344 18.042969 6.945312 18.042969 L 16.867188 18.042969 C 17.414062 18.042969 17.855469 17.601562 17.855469 17.054688 L 17.855469 5.148438 C 17.855469 4.605469 17.414062 4.160156 16.867188 4.160156 Z M 9.425781 4.160156 "/>
<path style=" stroke:none;fill-rule:nonzero;fill:rgb(100%,100%,100%);fill-opacity:0.392157;" d="M 5.957031 17.054688 L 5.957031 17.429688 C 5.957031 17.972656 6.402344 18.414062 6.945312 18.414062 L 16.867188 18.414062 C 17.414062 18.414062 17.855469 17.972656 17.855469 17.429688 L 17.855469 17.054688 C 17.855469 17.601562 17.414062 18.042969 16.867188 18.042969 L 6.945312 18.042969 C 6.402344 18.042969 5.957031 17.601562 5.957031 17.054688 Z M 5.957031 17.054688 "/>
<path style=" stroke:none;fill-rule:nonzero;fill:rgb(0%,0%,0%);fill-opacity:0.235294;" d="M 9.425781 4.160156 C 9.164062 4.160156 8.914062 4.265625 8.726562 4.449219 L 6.246094 6.929688 C 6.0625 7.117188 5.957031 7.367188 5.957031 7.628906 L 5.957031 7.996094 C 5.957031 7.734375 6.0625 7.484375 6.246094 7.296875 L 8.726562 4.816406 C 8.914062 4.632812 9.164062 4.527344 9.425781 4.527344 L 16.867188 4.527344 C 17.414062 4.527344 17.855469 4.972656 17.855469 5.515625 L 17.855469 5.148438 C 17.855469 4.605469 17.414062 4.160156 16.867188 4.160156 Z M 9.425781 4.160156 "/>
<path style="fill:none;stroke-width:3;stroke-linecap:round;stroke-linejoin:round;stroke:rgb(12.941176%,12.941176%,12.941176%);stroke-opacity:1;stroke-miterlimit:4;" d="M 201.064133 -126.258474 C 195.481332 -126.258474 190.148508 -124.008689 186.14889 -120.092397 L 133.237276 -67.180783 C 129.320984 -63.181165 127.071199 -57.848341 127.071199 -52.26554 L 127.071199 148.798592 C 127.071199 160.464145 136.570292 169.879912 148.152519 169.879912 L 359.798974 169.879912 C 371.464527 169.879912 380.880294 160.464145 380.880294 148.798592 L 380.880294 -105.177154 C 380.880294 -116.759382 371.464527 -126.258474 359.798974 -126.258474 Z M 201.064133 -126.258474 " transform="matrix(0.0468795,0,0,0.0468795,0,10.079087)"/>
<path style=" stroke:none;fill-rule:nonzero;fill:rgb(100%,100%,100%);fill-opacity:0.392157;" d="M 8.929688 2.175781 C 8.667969 2.175781 8.417969 2.28125 8.230469 2.464844 L 4.261719 6.433594 C 4.078125 6.621094 3.972656 6.871094 3.972656 7.132812 L 3.972656 7.378906 C 3.972656 7.117188 4.078125 6.867188 4.261719 6.679688 L 8.230469 2.710938 C 8.417969 2.527344 8.667969 2.421875 8.929688 2.421875 L 18.851562 2.421875 C 19.398438 2.421875 19.839844 2.863281 19.839844 3.410156 L 19.839844 3.164062 C 19.839844 2.617188 19.398438 2.175781 18.851562 2.175781 Z M 8.929688 2.175781 "/>
<path style="fill:none;stroke-width:11.338583;stroke-linecap:round;stroke-linejoin:round;stroke:rgb(12.941176%,12.941176%,12.941176%);stroke-opacity:1;stroke-miterlimit:4;" d="M 719.931259 175.416322 C 698.830912 175.416322 678.675356 183.919447 663.558689 198.721183 L 343.58924 518.690632 C 328.787504 533.807298 320.284379 553.962854 320.284379 575.063202 L 320.284379 1614.963909 C 320.284379 1659.054188 356.186463 1694.641341 399.961811 1694.641341 L 639.938897 1694.641341 L 639.938897 1654.96009 C 639.938897 1610.869812 675.52605 1574.967728 719.931259 1574.967728 L 1199.885432 1574.967728 C 1244.290641 1574.967728 1279.877794 1610.869812 1279.877794 1654.96009 L 1279.877794 1694.641341 L 1519.85488 1694.641341 C 1563.945159 1694.641341 1599.532312 1659.054188 1599.532312 1614.963909 L 1599.532312 255.093753 C 1599.532312 211.003475 1563.945159 175.416322 1519.85488 175.416322 Z M 719.931259 175.416322 " transform="matrix(0.0124035,0,0,0.0124035,0,0)"/>
</g>
</svg>
